!!!SOCIAL_FUNCTION:	bird dance songs
!!!PDT:	1956
!!!OTL: No_80_Bird_Dance_Song_(c).krn
!!!LANG: Non-Tone
!!!LING_GROUP: Muskogean
!!!REG: Florida
**kern
*staff1
=1-
*clefF4
*k[b-e-a-]
*M3/4
2r
8r
8G\
=2!|:
(4.B-\
16.A-\LL)
32G\JJk
8G\L
16B-\L
16B-\JJ
=3||
*M2/4
4.B-\
8B-\
=4||
*M3/4
(16B-\LK
(8.G\J)
8.G\L)
16G\Jk
8G\L
16G\L
16G\JJ
=5||
*M2/4
(8G\L
8E-\J)
16G\LK
8.G\J
=6||
*M3/4
4..E-\
16E-\
8E-\L
16E-\L
16E-\JJ
=7||
*M2/4
4G\
16A-\LK
8.G\J
=8
4.E-\
8E-\
=9
8E-\L
(16E-\L
16BB-\JJ)
8.E-\L
16B-\Jk
=10||
*M3/4
4.G\
8G\
8G\L
16G\L
16G\JJ
=11||
*M2/4
(8G\L
8E-\J)
16G\LK
8.G\J
=12||
*M3/4
4E-\
8r
8E-\
8E-\L
16E-\L
16E-\JJ
=13||
*M2/4
4G\
16A-\LK
8.G\J
=14||
*M3/4
4.E-\
8E-\
8E-\L
16E-\L
16E-\JJ
=15||
*M2/4
4BB-/
8.r
16B-\
=16||
*M3/4
(4.B-\
16.A-\LL)
32G\JJk
8G\L
16B-\L
16B-\JJ
=17||
*M2/4
4.B-\
8B-\
=18||
*M3/4
(16B-\LK
(8.G\J)
8.G\L)
16G\Jk
8G\L
16G\L
16G\JJ
=19||
*M2/4
(8G\L
8E-\J)
16G\LK
8.G\J
=20||
*M3/4
4..E-\
16E-\
8E-\L
16E-\L
16E-\JJ
=21||
*M2/4
4G\
16A-\LK
8.G\J
=22||
=
*M3/4
4.E-\
8E-\
8E-\L
16E-\L
16E-\JJ
=23||
*M2/4
4BB-/
8.r
16B-\
=24:|!
*M3/4
4.E-\
8E-\
8E-\L
16E-\L
16BB-\JJ
=25
2E-\
4r
==
*-
